X: 1
T: The (Old) King's Reel
C: Dunlay
R: reel
Z: 2005 John Chambers <jc:trillian.mit.edu>
S: Handwritten MS in the BSFC collection. "Source: Barbara McOwen"
M: C|
L: 1/8
K: Ador
   A \
| "Am"EA,A,B, A,2A,A | "Am"EA,EF "G"GEDB, | "Am"EA,A,B, "C"C2CD | "G"ECDC "Em"B,G,G,A |
| "Am"EA,A,B, (A,G,A,)A | "Am"EA,A,F "G"GEDB, | "Am"A,/A,/A, A,B, "C"C2CD | "G"ECDC "Em"B,G,G, |]
K: Amix
   d \
| "A"cA A/A/A cAeA | "A"cABc "G"dBGB | "A"ceAB "C"=c2ce | "G"gage "Em"d^cBe |
| "A"cA A/A/A cded | "A"cABc "G"dcBd | "Am"=c2BG AcBA | "G"GEDC "Em"B,G,G, |]
